X: 36188
T: Scottish
R: polka
M: 2/4
K: Cmajor
e2 d2|cB cd|f2 e2|d3 g/g/|
ga gf|ed ef|e2 d2|1 ,3 e2 c2:|2 c4:|4 c3e||
|:e2 e2|f3e|dc de|c4|
d2 dd|ef ed|c2 B2|A3 A/A/|
AB cA|d2 d2|cB cd|e4|
AB cd|ef ed|c2 B2|A3e:|
|:e2 e2|a3 g|fe df|e4|
AB cd|ef ed|1 ,3 c2 d2|e3e:|2 c2 B2|A3e:|4 c2 B2|A4||

